X:1
T: Drumlanrig Castle
C:
R:Strathspey
Q: 128
K:G
M:4/4
L:1/16
|:B2|D3E G3A B3A B3e|d3A B3G EEE2 E3G|D3E G3A B3A B3d|efg2 d3g BG3 G2B2|
D3E G3A B3A B3e|d3A B3G EEE2 E3G|D3E G3A B3A B3d|efg2 d3g BG3 G2e2|
dcBc d3g d3B G3B|cde2 Bcd2 AE3 E3e|dcBc d3g d3B G3B|cde2 A3d BG3 G3e|
dcBc d3g d3B G3B|cde2 Bcd2 AE3 E3G|D3E G3A B3A B3d|edg2 d3g BG3 G2:|
